X:830
T:Pepper is black.
C:John Malchair's Third Collection of Tunes
F:https://www.vwml.org/record/Malchair/3619/p83
F:www.vwml.org/topics/historic-dance-and-tune-books/Malchair
Z:Eric Conrad Apr 2020
W:Ed.1665.
M:6/4
L:1/4
K:Dmix
P:A
c2A e2e | c>BA e2A | ded e>fg/a/ | f3 d3 ||
P:B
|: efg a>ba | efg g>fg | f2g a>bg/a/ | f3 d2d :|


